X:1
T:6 Lieder, Op.23
T:O Lust, o Lust
T:6 Lieder, Op.23
T:6. O Lust, o Lust
T:Clara Schumann
T:Hermann Rollett
T:OpenScore (CC0)
T:OpenScore (CC0)
C:Clara Schumann
Z:Hermann Rollett
Z:OpenScore (CC0)
%%score ( 1 2 ) { 3 | ( 4 5 6 7 ) }
L:1/8
Q:1/4=116
M:6/8
K:Eb
V:1 treble nm="Voice"
V:2 treble 
V:3 treble nm="Piano"
V:4 bass 
V:5 bass 
V:6 bass 
V:7 bass 
V:1
"^Sehr lebhaft" z6 |: z6 | z6 | z6 | z2!f! G B2 B | e3- e2 B | g3- g2 e | e3 c3 | B3 G3 | %9
w: ||||1. ~O Lust, o|Lust _ vom|Berg~ _ ein|Lied in's|Land hin-|
w: ||||2. ~Es  schwingt sich|erd\- _ und|him- * mel-|wärts der|See- le|
 F2 d{/d} c3 | B3 z z2 | z3 z2!p! B | B2 =A A2 e | e2 d d2 d |!<(! d2 =B c2 e!<)! | g3 f3 | z6 | %17
w: ab zu sin-|gen~!|Der|klein- ste Ton hin-|un- ter zieht so|wie auf Rie- sen-|schwin- gen~!||
w: klin- gend Seh-|nen,|und|fällt der gan- zen|Welt an's Herz~ ob|freu- dig, ob in|Thrä- nen.||
 z6 | z2!p! d _d2 d | c3-!<(! c2 c!<)! | (f2!>(! e-) (ed) c!>)! | =B3 z2 d | e2 c g2 d | %23
w: |Der still- ste|Hauch~ _ aus|lau- * * * ter|Brust, in|Leid und Lust ent-|
w: |Was still sonst|nur~ _ die|Brust~ _ _ _ durch-|zieht, fliegt|aus auf lau- ten|
 (e2 c) g2 z | z2 z z2 e | (e3- ed) c | f3 B3 | G3/2 G/ G z2 B |"^cresc." A2 A d2 c | c2 B z2 _d | %30
w: run- * gen,|er|wird~ _ _ zum|Klan- ge|un- be- wusst für|al- le Welt ge-|sun- gen er|
w: Schwin- * gen,|o|Lust,  _ _ o|Lust vom|Berg * ein *|Land hin- ab zu|sin- gen, o|
 (c3 f2) e | e2 d z2!f! B | g2!>(! =d e2 =B | z c G A2 F!>)! |!<(! B2 c d2 e!<)! | (g3 f3) | %36
w: wird~ _ zum|Klan- ge, er|wird zum Klan- ge|un- be- wusst für|al- le Welt ge-|sun- *|
w: Lust,~ _ o|Lust, * o|Lust, o Lust vom|* ein Lied in's|Land hin- ab zu|sin- *|
{/e} e3 z2 z :| z6 | z6 | z6 |] %40
w: gen.||||
w: gen.||||
V:2
 x6 |: x6 | x6 | x6 | x6 | x6 | x6 | x6 | x6 | x6 | x6 | x6 | x6 | x6 | x6 | x6 | x6 | x6 | x6 | %19
w: |||||||||||||||||||
w: |||||||||||||||||||
 x6 | x6 | x6 | x6 | x6 | x6 | x6 | x6 | G2 G c2 B | x6 | x6 | x6 | x6 | x6 | c2 G x3 | x6 | x6 | %36
w: |||||||||||||||||
w: ||||||||* * Lied in's||||||Berg ein|||
 x6 :| x6 | x6 | x6 |] %40
w: ||||
w: ||||
V:3
!f! (G,/B,/E/G/ B) (B/G/E/B,/ G,) |: (B,/E/G/B/ e) (e/B/G/E/ B,) | (E/G/B/e/ g) !>![gb]>[eg].[Be] | %3
 .[GB].[EG].[B,E] [A,DFB]3 |!mf! (G,/B,/E/G/ B) (B/G/E/B,/ G,) | B,/E/G/B/ e e/B/G/E/ B, | %6
 E/G/B/e/ g g/e/B/G/ E | z/ E/A/c/ e z/ C/E/A/ c | z/ B,/E/G/ B z/ G,/B,/E/ G | %9
 z/ (F,/B,/E/ F) z/ (F,/=A,/E/ F) | z/ (F,/B,/D/ F) z/ (D/F/B/ d) | %11
 .[df]>!p!.[Bd].[FB] .[DF].[B,D][I:staff +1].[F,B,] |[I:staff -1] z/ (B,/E/G/ B) z/ (=A,/E/=A/ G) | %13
 z/ (=A,/C/G/ ^F) z/ (^F,/C/D/ F) | z/!<(! (G,/=B,/D/ [=FG]) z/ (G,/C/E/ G)!<)! | %15
 z/ (C/E/G/ c) z/ (C/E/F/ c) |!p! z/ (D/F/B/ d) z/ (_d/G/=E/ _D) | z/ (C/_E/F/ c) z/ (e/c/F/ E) | %18
 z/ (D/F/B/ d) z/ (_d/G/=E/ _D) | z/ (C/F/=A/ c) z/ (c/A/F/ C) | %20
 z/ (C/F/_A/ c)!>(! z/ (c/A/F/ =D)!>)! | z/ (=B,/F/G/ =B) z/ (D/F/G/!mp! d) | %22
 z/ (E/^F/=A/ e) z/ (=f/d/G/ =F) | z/ (E/^F/=A/ e) z/ (=f/d/G/ =F) | z/ (E/G/c/ e) z/ (e/c/G/ E) | %25
 z/ (E/A/c/ e) z/ (=A/_G/E/ =A,) | z/ (F/_A/B/ f) z/ (A/F/B,/ A,) | %27
!p! z/ (G,/B,/E/ G) z/ (G,/B,/^C/ G) | z/ (A,/B,/D/ A) z/ (=A,/B,/E/ =A) | %29
 z/ (B,/E/G/ B) z/ (_D/E/B/ _d) | z/ ((C/E/A/ c)) z/ (_C/E/F/ _c) | %31
 z/ (B,/D/F/ B) z/ (D/F/B/!mf! d) | z/ (G/B/g/ [A=d])[I:staff +1] (C/[I:staff -1]E/G/e/ [F=B]) | %33
 z E G[I:staff +1] (A,/-C/F/[I:staff -1]A/ F) | [B,EB]2 [=CEA] [B,DF]2 E | E3 D3 | %36
 (G,/B,/E/G/ B) (B/G/E/B,/ G,) :| (B,/E/G/B/ e) (e/B/G/E/ B,) | [Bgb]>.[eg].[Be] .[GB].[EG].[B,E] | %39
 ([A,DFB]3 [G,E]) z z |] %40
V:4
!ped! ([E,,B,,]/!ped-up!E,/G,/B,/ E) (E/B,/G,/E,/ B,,) |: %1
!ped! ([G,,E,]/G,/B,/E/[I:staff -1] G) (G/[I:staff +1]E/B,/G,/ E,)!ped-up! | %2
!ped! ([B,,G,]/B,/[I:staff -1]E/G/ B) !>![GB]>[EG].[B,E]!ped-up! | %3
[I:staff +1] .[G,B,].[E,G,].[B,,E,] [B,,,B,,]3 | %4
!ped! ([E,,B,,]/E,/G,/B,/ E) (E/B,/G,/E,/!ped-up! B,,) | %5
!ped! [G,,E,]/G,/B,/[I:staff -1]E/ G G/E/[I:staff +1]B,/G,/ E,!ped-up! | %6
!ped! [B,,G,]/B,/E/G/[I:staff -1] B B/[I:staff +1]G/E/B,/ G,!ped-up! | %7
!ped! C,/E,/A,/C/ E A,,/E,/A,/C/ E!ped-up! |!ped! G,,/B,,/E,/G,/ B, E,,/B,,/E,/G,/ B,!ped-up! | %9
!ped! F,,3!ped-up!!ped! [F,,,F,,]3!ped-up! |!ped! [B,,,B,,]3 (B,,/F,/B,/D/[I:staff -1] F)!ped-up! | %11
[I:staff +1] z6 | C,, z z C, z z | D,, z z D, z z | E,, z z E, z z | [_B,,C,_B,]3 [=A,,C,=A,]3 | %16
 [B,,,B,,]2 z [=E,G,B,]2 z | [=A,,,=A,,]2 z [F,C]2 z | [B,,,B,,]2 z [G,B,]2 z | %19
 [=A,,,=A,,]2 z [F,C]2 z | [_A,,,_A,,]2 z [A,C]2 z | [G,,,G,,]2 z =B,3 | C3 =B,3 | %23
 [C,^F,=A,C]3 [=B,,G,D]3 | [C,,C,] z z G,3 | A,3 =A,2 z | B,,3 F,3 | E,3 =E,3 |"^cresc." F,3 ^F,3 | %29
 [G,,B,,G,]3 [G,,E,-B,]3 | [A,,E,A,]3 [A,,,A,,]3- | [A,,,A,,]3 [A,,B,,B,]3 | B,2!>(! =B, C2 D | %33
 A,,/E,/[I:staff -1] C/c/[I:staff +1] [_B,_D=E] x x [A,_C_E]!>)! | x6 | x6 | %36
!f!!ped! ([E,,B,,]/E,/G,/B,/[I:staff -1] E) (E/[I:staff +1]B,/G,/E,/ B,,)!ped-up! :| %37
!ped! ([G,,E,]/G,/B,/[I:staff -1]E/ G) (G/E/[I:staff +1]B,/G,/ E,)!ped-up! | %38
 B,,3/2[K:treble] .[EG]/ .[B,E][K:bass] .[G,B,].[E,G,].[B,,E,] | ([B,,,B,,]3 E,,) z z |] %40
V:5
 x6 |: x6 | x6 | x6 | x6 | x6 | x6 | x6 | x6 | x6 | x6 | x6 | x6 | x6 | x6 | x6 | x6 | x6 | x6 | %19
 x6 | x6 | x6 | x6 | x6 | x3 [C,E,]3- | [C,E,]6 | D,,6 | B,,6 | B,,6 | x6 | x6 | x6 | G,,6 | %33
 A,,2 x A,2 x | B,,6 | !>![B,,,B,,]6 | x6 :| x6 | x3/2[K:treble] x3/2[K:bass] x3 | x6 |] %40
V:6
 x6 |: x6 | x6 | x6 | x6 | x6 | x6 | x6 | x6 | x6 | x6 | x6 | x6 | x6 | x6 | x6 | x6 | x6 | x6 | %19
 x6 | x6 | x6 | x6 | x6 | x6 | x6 | x6 | E,,3 =E,,3 | F,,3 ^F,,3 | x6 | x6 | x6 | x6 | x6 | x6 | %35
 x6 | x6 :| x6 | x3/2[K:treble] x3/2[K:bass] x3 | x6 |] %40
V:7
 x6 |: x6 | x6 | x6 | x6 | x6 | x6 | x6 | x6 | x6 | x6 | x6 | x6 | x6 | x6 | x6 | x6 | x6 | x6 | %19
 x6 | x6 | x6 | x6 | x6 | x6 | x6 | x6 | x6 | x6 | x6 | x6 | x6 | x6 | x6 | G,2 x A,2 [G,B,] | %35
[I:staff -1] !>![B,AB]6 | x6 :| x6 | x3/2[I:staff +1][K:treble] x3/2[K:bass] x3 | x6 |] %40

